assets/img/braze_icons/layout-grid-02.svg

<svg fill="none" height="24" viewBox="0 0 24 24" width="24" xmlns="http://www.w3.org/2000/svg"><g fill="#801ed7"><path d="m11 3.6c0-.56005 0-.84008-.109-1.05399-.0959-.18816-.2488-.34114-.437-.43702-.2139-.10899-.49395-.10899-1.054-.10899h-3.23854c-.52713-.00002-.98192-.00003-1.35649.03057-.39534.0323-.78856.10362-1.16694.29641-.56449.28762-1.02343.74656-1.31105 1.31105-.19279.37838-.26411.7716-.29641 1.16694-.0306.37457-.03059.82932-.03057 1.35645 0 .31489 0 .47233.03515.60138.09311.34187.36018.60894.70205.70205.12905.03515.28649.03515.60138.03515h6.06142c.56005 0 .8401 0 1.054-.10899.1882-.09588.3411-.24886.437-.43702.109-.21391.109-.49394.109-1.05399z"/><path d="m3.6 9.5c-.56005 0-.84008 0-1.05399.10899-.18816.09588-.34114.24886-.43702.43701-.10899.2139-.10899.4939-.10899 1.054v1.8c0 .5601 0 .8401.10899 1.054.09588.1882.24886.3411.43702.437.21391.109.49394.109 1.05399.109h5.8c.56005 0 .8401 0 1.054-.109.1882-.0959.3411-.2488.437-.437.109-.2139.109-.4939.109-1.054v-1.8c0-.5601 0-.8401-.109-1.054-.0959-.18815-.2488-.34113-.437-.43701-.2139-.10899-.49395-.10899-1.054-.10899z"/><path d="m3.33855 16.5c-.31486 0-.47229 0-.60132.0351-.34189.0932-.60898.3602-.70209.7021-.03514.1291-.03514.2865-.03514.6013-.00002.5272-.00003.982.03057 1.3565.0323.3954.10362.7886.29641 1.167.28762.5645.74656 1.0234 1.31105 1.311.37838.1928.7716.2641 1.16694.2964.37457.0306.82933.0306 1.35647.0306h3.23856c.56005 0 .8401 0 1.054-.109.1882-.0959.3411-.2488.437-.437.109-.2139.109-.4939.109-1.054v-2.3c0-.5601 0-.8401-.109-1.054-.0959-.1882-.2488-.3411-.437-.437-.2139-.109-.49395-.109-1.054-.109z"/><path d="m13 20.4c0 .5601 0 .8401.109 1.054.0959.1882.2488.3411.437.437.2139.109.4939.109 1.054.109h3.2386c.5271 0 .9819 0 1.3564-.0306.3954-.0323.7886-.1036 1.167-.2964.5645-.2876 1.0234-.7465 1.311-1.311.1928-.3784.2641-.7716.2964-1.167.0306-.3745.0306-.8293.0306-1.3564 0-.3149 0-.4723-.0351-.6014-.0932-.3419-.3602-.6089-.7021-.7021-.1291-.0351-.2865-.0351-.6014-.0351h-6.0614c-.5601 0-.8401 0-1.054.109-.1882.0959-.3411.2488-.437.437-.109.2139-.109.4939-.109 1.054z"/><path d="m20.4 14.5c.5601 0 .8401 0 1.054-.109.1882-.0959.3411-.2488.437-.437.109-.2139.109-.4939.109-1.054v-1.8c0-.5601 0-.8401-.109-1.054-.0959-.18815-.2488-.34113-.437-.43701-.2139-.10899-.4939-.10899-1.054-.10899h-5.8c-.5601 0-.8401 0-1.054.10899-.1882.09588-.3411.24886-.437.43701-.109.2139-.109.4939-.109 1.054v1.8c0 .5601 0 .8401.109 1.054.0959.1882.2488.3411.437.437.2139.109.4939.109 1.054.109z"/><path d="m22 6.16144c0 .31487 0 .4723-.0351.60134-.0932.34188-.3602.60896-.7021.70207-.1291.03515-.2865.03515-.6014.03515h-6.0614c-.5601 0-.8401 0-1.054-.10899-.1882-.09588-.3411-.24886-.437-.43702-.109-.21391-.109-.49394-.109-1.05399v-2.3c0-.56005 0-.84008.109-1.05399.0959-.18816.2488-.34114.437-.43702.2139-.10899.4939-.10899 1.054-.10899h3.2385c.5272-.00002.982-.00003 1.3565.03057.3954.0323.7886.10362 1.167.29641.5645.28762 1.0234.74656 1.311 1.31105.1928.37838.2641.7716.2964 1.16694.0306.37457.0306.82933.0306 1.35647z"/></g></svg>

<svg width="24" height="24" viewBox="0 0 24 24" fill="none" xmlns="http://www.w3.org/2000/svg">
<path d="M11 3.6C11 3.03995 11 2.75992 10.891 2.54601C10.7951 2.35785 10.6422 2.20487 10.454 2.10899C10.2401 2 9.96005 2 9.4 2H6.16146C5.63433 1.99998 5.17954 1.99997 4.80497 2.03057C4.40963 2.06287 4.01641 2.13419 3.63803 2.32698C3.07354 2.6146 2.6146 3.07354 2.32698 3.63803C2.13419 4.01641 2.06287 4.40963 2.03057 4.80497C1.99997 5.17954 1.99998 5.63429 2 6.16142C2 6.47631 2 6.63375 2.03515 6.7628C2.12826 7.10467 2.39533 7.37174 2.7372 7.46485C2.86625 7.5 3.02369 7.5 3.33858 7.5H9.4C9.96005 7.5 10.2401 7.5 10.454 7.39101C10.6422 7.29513 10.7951 7.14215 10.891 6.95399C11 6.74008 11 6.46005 11 5.9V3.6Z" fill="#801ED7"/>
<path d="M3.6 9.5C3.03995 9.5 2.75992 9.5 2.54601 9.60899C2.35785 9.70487 2.20487 9.85785 2.10899 10.046C2 10.2599 2 10.5399 2 11.1L2 12.9C2 13.4601 2 13.7401 2.10899 13.954C2.20487 14.1422 2.35785 14.2951 2.54601 14.391C2.75992 14.5 3.03995 14.5 3.6 14.5H9.4C9.96005 14.5 10.2401 14.5 10.454 14.391C10.6422 14.2951 10.7951 14.1422 10.891 13.954C11 13.7401 11 13.4601 11 12.9L11 11.1C11 10.5399 11 10.2599 10.891 10.046C10.7951 9.85785 10.6422 9.70487 10.454 9.60899C10.2401 9.5 9.96005 9.5 9.4 9.5H3.6Z" fill="#801ED7"/>
<path d="M3.33855 16.5C3.02369 16.5 2.86626 16.5 2.73723 16.5351C2.39534 16.6283 2.12825 16.8953 2.03514 17.2372C2 17.3663 2 17.5237 2 17.8385C1.99998 18.3657 1.99997 18.8205 2.03057 19.195C2.06287 19.5904 2.13419 19.9836 2.32698 20.362C2.6146 20.9265 3.07354 21.3854 3.63803 21.673C4.01641 21.8658 4.40963 21.9371 4.80497 21.9694C5.17954 22 5.6343 22 6.16144 22H9.4C9.96005 22 10.2401 22 10.454 21.891C10.6422 21.7951 10.7951 21.6422 10.891 21.454C11 21.2401 11 20.9601 11 20.4V18.1C11 17.5399 11 17.2599 10.891 17.046C10.7951 16.8578 10.6422 16.7049 10.454 16.609C10.2401 16.5 9.96005 16.5 9.4 16.5H3.33855Z" fill="#801ED7"/>
<path d="M13 20.4C13 20.9601 13 21.2401 13.109 21.454C13.2049 21.6422 13.3578 21.7951 13.546 21.891C13.7599 22 14.0399 22 14.6 22H17.8386C18.3657 22 18.8205 22 19.195 21.9694C19.5904 21.9371 19.9836 21.8658 20.362 21.673C20.9265 21.3854 21.3854 20.9265 21.673 20.362C21.8658 19.9836 21.9371 19.5904 21.9694 19.195C22 18.8205 22 18.3657 22 17.8386C22 17.5237 22 17.3663 21.9649 17.2372C21.8717 16.8953 21.6047 16.6283 21.2628 16.5351C21.1337 16.5 20.9763 16.5 20.6614 16.5H14.6C14.0399 16.5 13.7599 16.5 13.546 16.609C13.3578 16.7049 13.2049 16.8578 13.109 17.046C13 17.2599 13 17.5399 13 18.1V20.4Z" fill="#801ED7"/>
<path d="M20.4 14.5C20.9601 14.5 21.2401 14.5 21.454 14.391C21.6422 14.2951 21.7951 14.1422 21.891 13.954C22 13.7401 22 13.4601 22 12.9V11.1C22 10.5399 22 10.2599 21.891 10.046C21.7951 9.85785 21.6422 9.70487 21.454 9.60899C21.2401 9.5 20.9601 9.5 20.4 9.5H14.6C14.0399 9.5 13.7599 9.5 13.546 9.60899C13.3578 9.70487 13.2049 9.85785 13.109 10.046C13 10.2599 13 10.5399 13 11.1L13 12.9C13 13.4601 13 13.7401 13.109 13.954C13.2049 14.1422 13.3578 14.2951 13.546 14.391C13.7599 14.5 14.0399 14.5 14.6 14.5H20.4Z" fill="#801ED7"/>
<path d="M22 6.16144C22 6.47631 22 6.63374 21.9649 6.76278C21.8717 7.10466 21.6047 7.37174 21.2628 7.46485C21.1337 7.5 20.9763 7.5 20.6614 7.5H14.6C14.0399 7.5 13.7599 7.5 13.546 7.39101C13.3578 7.29513 13.2049 7.14215 13.109 6.95399C13 6.74008 13 6.46005 13 5.9V3.6C13 3.03995 13 2.75992 13.109 2.54601C13.2049 2.35785 13.3578 2.20487 13.546 2.10899C13.7599 2 14.0399 2 14.6 2H17.8385C18.3657 1.99998 18.8205 1.99997 19.195 2.03057C19.5904 2.06287 19.9836 2.13419 20.362 2.32698C20.9265 2.6146 21.3854 3.07354 21.673 3.63803C21.8658 4.01641 21.9371 4.40963 21.9694 4.80497C22 5.17954 22 5.6343 22 6.16144Z" fill="#801ED7"/>
</svg>
